project/src/img/aircraft.svg

<svg width="42" height="42" viewBox="0 0 42 42" fill="none" xmlns="http://www.w3.org/2000/svg">
<path fill-rule="evenodd" clip-rule="evenodd" d="M21.7246 0.261312C22.6427 0.546552 23.3593 1.1954 23.7232 2.04965C24.658 3.97057 25.1622 6.15027 25.1671 8.32159V15.7442L28.7196 17.6671C28.9691 16.7967 29.7728 16.1578 30.7228 16.1578C31.8714 16.1578 32.8062 17.0918 32.806 18.2397V19.879L34.9924 21.0624C35.2651 20.2299 36.05 19.6267 36.973 19.6267C38.1216 19.6267 39.0564 20.5608 39.0562 21.7086V23.2621L41.4699 24.5685C41.6935 24.69 41.8331 24.9238 41.8331 25.1786V29.3423C41.8331 29.5699 41.7213 29.7829 41.5338 29.9127C41.4172 29.9945 41.279 30.0362 41.1394 30.0362C41.0574 30.0362 40.9748 30.0216 40.8949 29.9925L25.1671 24.0988V30.0368C25.1671 30.0806 25.1629 30.125 25.1539 30.168L24.4537 33.7962L31.0795 37.7688C31.2886 37.8945 31.4164 38.12 31.4164 38.3635V41.1393C31.4164 41.3433 31.3269 41.5369 31.1706 41.6687C31.0449 41.7756 30.8859 41.8332 30.7227 41.8332C30.6845 41.8332 30.647 41.8298 30.6088 41.8235L23.0646 40.5671C22.6865 41.3149 21.8937 41.8333 21.0018 41.8333H20.9983C20.1139 41.8333 19.326 41.3228 18.9416 40.5669L11.3919 41.8243C11.3543 41.8298 11.3162 41.8333 11.2787 41.8333C11.1155 41.8333 10.9564 41.7757 10.83 41.6688C10.6745 41.5377 10.5842 41.3434 10.5842 41.1394V38.3635C10.5842 38.1192 10.712 37.8937 10.921 37.7688L17.5469 33.7961L16.8462 30.1679C16.8378 30.1241 16.8336 30.0804 16.8336 30.0367V24.0983L1.10477 29.9924C1.02561 30.0221 0.942947 30.0361 0.861019 30.0361C0.721432 30.0361 0.583229 29.9937 0.465142 29.9125C0.277587 29.7821 0.166504 29.5698 0.166504 29.3421V25.1784C0.166504 24.9238 0.306091 24.6899 0.530375 24.5685L2.94464 23.2617V21.7086C2.94464 20.5608 3.87941 19.6267 5.02803 19.6267C5.95086 19.6267 6.73565 20.2297 7.00844 21.062L9.1944 19.8788V18.2397C9.1944 17.0919 10.1292 16.1578 11.2778 16.1578C12.2277 16.1578 13.0313 16.7966 13.2809 17.6668L16.8336 15.7438V8.32297C16.8212 6.07247 17.3461 3.81366 18.351 1.79632C18.9663 0.55762 20.3815 -0.0891135 21.7246 0.261312ZM23.4075 39.2171L24.1737 35.2468L30.0282 38.757V40.3198L23.4075 39.2171ZM17.8271 35.2467L11.9724 38.757V40.3205L18.594 39.2176L17.8271 35.2467ZM37.6674 22.5103L36.1862 21.7086H36.2785C36.2785 21.3263 36.5896 21.0153 36.9729 21.0153C37.3563 21.0153 37.6674 21.3262 37.6674 21.7086V22.5103ZM31.4172 19.1272V18.2397C31.4172 17.8573 31.1061 17.5457 30.7227 17.5457C30.3394 17.5457 30.0283 17.8573 30.0283 18.2397V18.3754L31.4172 19.1272ZM5.81384 21.7086L4.33351 22.5099V21.7086C4.33351 21.3263 4.64534 21.0153 5.02795 21.0153C5.41055 21.0153 5.72238 21.3262 5.72238 21.7086H5.81384ZM11.9721 18.3752V18.2397C11.9721 17.8573 11.6603 17.5457 11.2777 17.5457C10.8951 17.5457 10.5833 17.8573 10.5833 18.2397V19.127L11.9721 18.3752ZM25.1671 17.3223V22.6158L40.4449 28.3409V25.5921L25.1671 17.3223ZM23.7781 8.32297V16.1479L23.778 16.1571V23.0967L23.7781 23.1059V29.9694L21.9101 39.6556C21.8476 40.106 21.4566 40.4453 20.9996 40.4453C20.5434 40.4453 20.1531 40.106 20.0857 39.6202L18.2232 29.9701V8.31955C18.2121 6.28145 18.6864 4.23912 19.5955 2.414C19.9205 1.76026 20.6705 1.41952 21.3427 1.59514C21.8392 1.74993 22.242 2.11354 22.4594 2.62355C23.3177 4.38968 23.7732 6.36047 23.7781 8.32297ZM1.55537 28.3408L16.8333 22.6157V17.323L1.55537 25.5921V28.3408ZM20.9936 4.35987C21.7006 4.3772 22.3485 4.81373 22.5756 5.4931L23.0486 6.91702L21.7305 7.35354L21.2582 5.93093C21.2214 5.82196 21.1186 5.74774 21.0019 5.74774C20.8874 5.74847 20.7846 5.82692 20.7505 5.94207L20.2693 7.35916L18.954 6.91222L19.4263 5.52435C19.6235 4.84636 20.2569 4.36679 20.9936 4.35987Z" fill="black"/>
</svg>

<svg width="42" height="42" fill="none" xmlns="http://www.w3.org/2000/svg"><path fill-rule="evenodd" clip-rule="evenodd" d="M21.725.261a3.17 3.17 0 0 1 1.998 1.789c.935 1.92 1.44 4.1 1.444 6.272v7.422l3.553 1.923a2.085 2.085 0 0 1 4.086.573v1.639l2.186 1.183a2.087 2.087 0 0 1 1.981-1.435c1.149 0 2.083.934 2.083 2.082v1.553l2.414 1.306a.694.694 0 0 1 .363.61v4.164a.694.694 0 0 1-.938.65L25.167 24.1v5.938a.643.643 0 0 1-.013.131l-.7 3.628 6.625 3.973c.21.126.337.351.337.595v2.775a.692.692 0 0 1-.807.684l-7.544-1.256a2.325 2.325 0 0 1-2.063 1.266h-.004c-.884 0-1.672-.51-2.056-1.266l-7.55 1.257a.695.695 0 0 1-.808-.685v-2.776c0-.244.128-.47.337-.594l6.626-3.973-.7-3.628a.695.695 0 0 1-.013-.131v-5.939l-15.73 5.894a.693.693 0 0 1-.639-.08.694.694 0 0 1-.298-.57v-4.164c0-.254.14-.488.363-.61l2.415-1.306v-1.553c0-1.148.934-2.082 2.083-2.082.923 0 1.708.603 1.98 1.435l2.186-1.183v-1.64c0-1.147.935-2.081 2.084-2.081.95 0 1.753.639 2.003 1.509l3.553-1.923V8.323c-.013-2.25.512-4.51 1.517-6.527A2.948 2.948 0 0 1 21.725.261zm1.682 38.956l.767-3.97 5.854 3.51v1.563l-6.62-1.103zm-5.58-3.97l-5.855 3.51v1.564l6.622-1.103-.767-3.971zm19.84-12.737l-1.48-.801h.092a.694.694 0 0 1 1.388 0v.801zm-6.25-3.383v-.887a.695.695 0 0 0-1.389 0v.135l1.39.752zM5.814 21.71l-1.48.8v-.8a.695.695 0 0 1 1.388 0h.092zm6.158-3.334v-.135a.695.695 0 0 0-1.389 0v.887l1.39-.752zm13.195-1.053v5.294l15.278 5.725v-2.749l-15.278-8.27zm-1.389-8.999v21.646l-1.868 9.687a.921.921 0 0 1-.91.79c-.457 0-.847-.34-.914-.826l-1.863-9.65V8.32a13.15 13.15 0 0 1 1.373-5.906c.325-.654 1.075-.994 1.747-.819.496.155.899.519 1.116 1.029a13.19 13.19 0 0 1 1.32 5.699zM1.555 28.341l15.278-5.725v-5.293l-15.278 8.27v2.748zM20.994 4.36c.707.017 1.355.454 1.582 1.133l.473 1.424-1.319.437-.472-1.423a.27.27 0 0 0-.256-.183.267.267 0 0 0-.252.194l-.48 1.417-1.316-.447.472-1.388a1.638 1.638 0 0 1 1.568-1.164z" fill="#000"/></svg>
